X:495
T:An Dro
M:2/2
L:1/8
Q:1/8=150
K:Em
E2 B2 B2 Bc|A2 AB G4|FGAF G2 F2|EDEF G2 F2|E2 B2 B2 Bc|A2 AB G
4|FGAF G2 F2|GEFD E4||
FGAF G2 E2|EDEF G2 F2|FGAF G2 E2|GEFD E4|FGAF G2 E2|EDEF G2 F
2|FGAF G2 E2|GEFD E4|
